packages/dnb-eufemia/assets/icons/folder_medium.svg

<svg width="24" height="24" viewBox="0 0 24 24" fill="none" xmlns="http://www.w3.org/2000/svg">
<path d="M23 7.90909C23 7.00535 22.2423 6.27273 21.3077 6.27273H10.3077L8.27692 3.65455V3.65455C7.95732 3.2425 7.45574 3 6.92308 3H2.69231V3C1.75767 3 1 3.73263 1 4.63636V19.3636V19.3636C1 20.2674 1.75767 21 2.69231 21H21.3077V21C22.2423 21 23 20.2674 23 19.3636V7.90909Z" stroke="black" stroke-width="1.5" stroke-linecap="round" stroke-linejoin="round"/>
</svg>

<svg width="24" height="24" viewBox="0 0 24 24" fill="none" xmlns="http://www.w3.org/2000/svg"><path d="M23 7.91c0-.905-.758-1.637-1.692-1.637h-11L8.277 3.655v0A1.712 1.712 0 0 0 6.923 3h-4.23v0C1.757 3 1 3.733 1 4.636v14.728C1 20.267 1.758 21 2.692 21h18.616v0c.934 0 1.692-.733 1.692-1.636V7.909Z" stroke="#000" stroke-width="1.5" stroke-linecap="round" stroke-linejoin="round"/></svg>
